lib/icons/rocket.svg

<svg width="14" height="19" viewBox="0 0 14 19" fill="none" xmlns="http://www.w3.org/2000/svg">
<path fill-rule="evenodd" clip-rule="evenodd" d="M11.5019 11.1391L11.5628 10.739C11.7154 9.87754 11.7747 8.98359 11.6789 8.08686C11.5195 6.69519 11.0187 5.3283 10.239 4.11075L8.27431 1.11288C7.5882 0.0513042 6.06714 0.0241642 5.3874 1.06137L3.50238 3.83623C2.63714 5.11703 2.11402 6.61996 1.99463 8.19183C1.9348 8.93146 1.99923 9.70418 2.12555 10.4163L2.25178 11.0975L0.702963 12.1501C0.424242 12.3611 0.239021 12.6973 0.24024 13.0985L0.253178 17.3578C0.254397 17.7591 0.627745 18.0435 1.03092 17.9272L3.51193 17.1999C3.88631 17.8239 4.57054 18.2682 5.34659 18.282L8.41975 18.3368C9.22684 18.3512 9.90845 17.9313 10.279 17.2898L12.9511 18.1708C13.324 18.3009 13.7267 18.0303 13.7255 17.6291L13.7125 13.3389C13.7113 12.9686 13.524 12.5949 13.2129 12.3733L11.5019 11.1391ZM1.25131 16.8146L3.95963 16.0206L4.36637 16.6985C4.57378 17.0441 4.94562 17.2749 5.34356 17.282L8.41671 17.3368C8.84841 17.3445 9.20866 17.1257 9.41063 16.776L9.80801 16.088L12.7239 17.0494L12.7126 13.3211C12.7125 13.2688 12.6786 13.2084 12.6443 13.1839L12.6393 13.1803L10.4204 11.5798L10.576 10.5565L10.5782 10.5446C10.718 9.75519 10.7683 8.95874 10.6851 8.17642C10.5439 6.9494 10.1008 5.73294 9.40313 4.64209L7.43797 1.64344C7.14807 1.19489 6.51424 1.18357 6.22703 1.62182L6.22262 1.62856L4.33447 4.40801L4.33375 4.40909C3.56422 5.5486 3.09801 6.88739 2.99161 8.28826L2.99124 8.29314C2.94015 8.92461 2.99404 9.60691 3.10925 10.2578L3.35245 11.5703L1.30561 12.9613C1.28668 12.9779 1.27176 12.9973 1.26122 13.0183C1.24936 13.0418 1.23995 13.073 1.24008 13.1164L1.25131 16.8146ZM7.95249 7.75209C7.94998 8.26863 7.52041 8.69807 6.96646 8.68406C6.4125 8.67004 5.98721 8.21897 5.98971 7.70243C5.99222 7.18588 6.42179 6.75644 6.97574 6.77046C7.5297 6.78447 7.95499 7.23554 7.95249 7.75209ZM8.95217 7.77738C8.94692 8.85808 8.05572 9.71173 6.9616 9.68404C5.86749 9.65636 4.98479 8.75784 4.99003 7.67713C4.99528 6.59643 5.88648 5.74279 6.9806 5.77047C8.07471 5.79815 8.95741 6.69667 8.95217 7.77738Z" fill="#7A859E"/>
</svg>

<svg width="14" height="19" fill="none" xmlns="http://www.w3.org/2000/svg"><path fill-rule="evenodd" clip-rule="evenodd" d="m11.502 11.14.06-.401a9.454 9.454 0 0 0 .117-2.652 9.397 9.397 0 0 0-1.44-3.976L8.274 1.113C7.588.05 6.067.024 5.387 1.06L3.502 3.836a9.001 9.001 0 0 0-1.507 4.356c-.06.74.004 1.512.13 2.224l.127.681L.703 12.15a1.17 1.17 0 0 0-.463.948l.013 4.26a.596.596 0 0 0 .778.57l2.48-.728c.375.624 1.06 1.068 1.836 1.082l3.073.055a2.078 2.078 0 0 0 1.859-1.047l2.672.88a.58.58 0 0 0 .774-.54l-.012-4.291a1.211 1.211 0 0 0-.5-.966l-1.711-1.234Zm-10.25 5.675 2.708-.794.406.677c.208.346.58.577.978.584l3.073.055c.431.008.792-.211.994-.561l.397-.688 2.916.961-.011-3.728a.19.19 0 0 0-.069-.137l-.005-.004-2.219-1.6.156-1.024.002-.011c.14-.79.19-1.586.107-2.369a8.378 8.378 0 0 0-1.282-3.534L7.438 1.643a.718.718 0 0 0-1.211-.021l-.004.007-1.889 2.779v.001a8.02 8.02 0 0 0-1.342 3.88v.004c-.052.632.002 1.314.117 1.965l.243 1.312-2.046 1.391a.188.188 0 0 0-.045.057.21.21 0 0 0-.02.098l.01 3.699Zm6.7-9.063a.946.946 0 0 1-.986.932.994.994 0 0 1-.976-.982.946.946 0 0 1 .986-.932c.554.014.979.466.976.982Zm1 .025a1.921 1.921 0 0 1-1.99 1.907c-1.095-.028-1.977-.926-1.972-2.007A1.921 1.921 0 0 1 6.98 5.77c1.095.028 1.977.927 1.972 2.007Z" fill="#7A859E"/></svg>
